Adwaita++/apps/16/regextester.svg

<svg height="16" width="16" xmlns="http://www.w3.org/2000/svg">
  <path d="m2.045 3.487-2.045 6.975h.846l2.026-6.975zm4.519 6.975v-1.231h1.231v1.231zm4.097-6.975-2.046 6.975h.846l2.026-6.975zm2.829 2.462c.247 0 .468.073.661.22.197.144.35.355.457.631.108.274.161.817.161 1.198 0 .371-.053.538-.161.809-.107.268-.26.474-.457.618-.196.144-.421.216-.675.216-.427 0-.728-.139-.904-.419s-.264-.584-.264-1.224c0-.646.094-1.328.282-1.617.188-.288.488-.432.9-.432zm1.673-.821c-.013.022-.027.25-.04.485s-.02.4-.02.495h-.01c-.15-.308-.363-.544-.641-.709-.275-.168-.6-.252-.975-.252-.67 0-1.169.218-1.499.653-.327.431-.491 1.347-.491 2.258 0 .898.152 1.385.456 1.804.307.419.786.628 1.436.628.389 0 .729-.082 1.019-.247.291-.168.519-.417.685-.747h.01v.828c0 .999-.439 1.373-1.317 1.373-.327 0-.592-.064-.794-.194-.2-.127-.329-.31-.387-.548l-.887.124c.098.406.318.882.661 1.101.343.222.804.333 1.383.333 1.479 0 2.248-.762 2.248-2.209v-4.04-1.136zm-11.465-1.641 2.046 6.975h-.846l-2.026-6.975z" fill="#444" fill-rule="evenodd"/>
</svg>

<svg xmlns="http://www.w3.org/2000/svg"  width="16" height="16" version="1.1">
 <path fill="#444" fill-rule="evenodd" d="M 2.045 3.487 L 0 10.462 L 0.846 10.462 L 2.872 3.487 L 2.045 3.487 L 2.045 3.487 L 2.045 3.487 L 2.045 3.487 Z M 6.564 10.462 L 6.564 9.231 L 7.795 9.231 L 7.795 10.462 L 6.564 10.462 L 6.564 10.462 L 6.564 10.462 L 6.564 10.462 Z M 10.661 3.487 L 8.615 10.462 L 9.461 10.462 L 11.487 3.487 L 10.661 3.487 L 10.661 3.487 L 10.661 3.487 Z M 13.49 5.949 C 13.737 5.949 13.958 6.022 14.151 6.169 C 14.348 6.313 14.501 6.524 14.608 6.8 C 14.716 7.074 14.769 7.617 14.769 7.998 C 14.769 8.369 14.716 8.536 14.608 8.807 C 14.501 9.075 14.348 9.281 14.151 9.425 C 13.955 9.569 13.73 9.641 13.476 9.641 C 13.049 9.641 12.748 9.502 12.572 9.222 C 12.396 8.942 12.308 8.638 12.308 7.998 C 12.308 7.352 12.402 6.67 12.59 6.381 C 12.778 6.093 13.078 5.949 13.49 5.949 L 13.49 5.949 L 13.49 5.949 Z M 15.163 5.128 C 15.15 5.15 15.136 5.378 15.123 5.613 C 15.11 5.848 15.103 6.013 15.103 6.108 L 15.093 6.108 C 14.943 5.8 14.73 5.564 14.452 5.399 C 14.177 5.231 13.852 5.147 13.477 5.147 C 12.807 5.147 12.308 5.365 11.978 5.8 C 11.651 6.231 11.487 7.147 11.487 8.058 C 11.487 8.956 11.639 9.443 11.943 9.862 C 12.25 10.281 12.729 10.49 13.379 10.49 C 13.768 10.49 14.108 10.408 14.398 10.243 C 14.689 10.075 14.917 9.826 15.083 9.496 L 15.093 9.496 L 15.093 10.324 C 15.093 11.323 14.654 11.697 13.776 11.697 C 13.449 11.697 13.184 11.633 12.982 11.503 C 12.782 11.376 12.653 11.193 12.595 10.955 L 11.708 11.079 C 11.806 11.485 12.026 11.961 12.369 12.18 C 12.712 12.402 13.173 12.513 13.752 12.513 C 15.231 12.513 16 11.751 16 10.304 L 16 6.264 L 16 5.128 L 15.163 5.128 L 15.163 5.128 L 15.163 5.128 Z M 3.698 3.487 L 5.744 10.462 L 4.898 10.462 L 2.872 3.487 L 3.698 3.487 Z"/>
</svg>
